X:1
T:[ID 2-22a]
T:[ID 2-22a]
T:Bezeichnung standardisiert: Menuett Menuet
T:Urheber unbekannt Datum in der hier transkribierten schriftlichen Quelle: 1776 - 1791
C:Urheber unbekannt
C:Datum in der hier transkribierten schriftlichen Quelle: 1776 - 1791
L:1/8
M:3/4
K:G
V:1 treble 
V:1
 d4 (3efg | d2 Tc2 B2 | EA G2 F2 | G4 A2 | BGdBAG | A/dx/^c/e x/ d2 | (3efg f2 Te2 | d6 :: %8
 A4 (3ABc | B>A G2 d2 | e2 c'bag | g2 f2 (3def | g2 G2 (3def | g2 G2 d2 | e>gdx/B/cx/A/ | G6 :| %16

